X:52
T:Farandole de Calendau
T:Farandole dei Menagi
O:France
A:Provence
C:Trad.
R:Farandole
M:6/8
Q:3/8=90
K:Bbmajor
dc|:B2c d2e|f3-fde|f2f fgf|e2d cdc|B2c d2e|f3-fde|f2f fgf|e2d c2B|
c2B c2d|e2d c3|Bcd Bcd|cdB cdc|B2c d2e|f3 g3|fgf edc|[1 B3-Bdc:|[2 B3 z3|]
%%footer $D   Galouvielle-MBe 2005 \nFarandole France
